X:828
T:Kirrie Kebbuck, The 
C:Joe Buchanan's Scottish Tome - Page 401.2
I:401 2
R:Strathspey
Z:Carl Allison
U:T=!tenuto!
L:1/8
M:4/4
K:D
B | "D"A<F F>A "G"B<G G>B | "A"c<A e>c "D"((3dfe) ((3dcB) |
"D"A<F F>A "G"B<G G>B | "A7"c<A g>c "D"d2 d>TB |
"D"A<F F>A "G"B<G G>B | "A"c<A e>c "D"((3dfe) ((3dcB) |
"D"A<F F>A "G"B<G G>B | "A7"((3Agf) ((3edc) "D"d2 (D>Tg) |
"D"f>ga>f d<af>d | "Em"g>ab>g e<bg>e |
"D"f>ga>f d<af>d | "A"(3cBA "A7"(g>Tc) d2 d>g |
"D"f>ga>f ((3dag) ((3fed) | "G"g>ab>g "E"((3eba) ((3gfe) |
"D"((3fed) "A"((3edc) ((3dcB) "A7"A>G | "D"F>D"A7"E>C "D"D2 D |]

